usr/share/icons/big-icons/symbolic/actions/edit-find-replace.svg

<svg xmlns="http://www.w3.org/2000/svg" viewBox="0 0 16 16">
  <defs id="defs3051">
    <style type="text/css" id="current-color-scheme">
      .ColorScheme-Text {
        color:#eff0f1;
      }
      </style>
  </defs>
 <path style="fill:currentColor;fill-opacity:1;stroke:none" 
     d="M 6.5 2 C 4.01472 2 2 4.01472 2 6.5 C 2 8.98528 4.01472 11 6.5 11 C 7.56305 11 8.54248 10.61639 9.3125 10 L 13.3125 14 L 14 13.3125 L 10 9.3125 C 10.61639 8.54248 11 7.56305 11 6.5 C 11 4.01472 8.98528 2 6.5 2 z M 6.5 3 C 8.4329966 3 10 4.5670034 10 6.5 C 10 6.697255 9.9704695 6.8749584 9.9375 7.0625 C 9.9121011 7.2213864 9.8897747 7.3802632 9.84375 7.53125 C 9.8339303 7.561608 9.8231299 7.5950074 9.8125 7.625 C 9.8020804 7.656007 9.7925075 7.6881378 9.78125 7.71875 C 9.7261527 7.8609557 9.6659064 7.9921422 9.59375 8.125 C 9.5828553 8.1458544 9.5738001 8.1668952 9.5625 8.1875 C 9.4816599 8.3349058 9.3817296 8.4602208 9.28125 8.59375 C 9.0830875 8.8570919 8.8570919 9.0830875 8.59375 9.28125 C 8.4602208 9.3817296 8.3349058 9.4816599 8.1875 9.5625 C 8.167776 9.5736933 8.1449491 9.5829154 8.125 9.59375 C 8.1041456 9.6046447 8.0835986 9.6145159 8.0625 9.625 C 7.9195102 9.6990827 7.778337 9.7581548 7.625 9.8125 C 7.593993 9.8229196 7.5626381 9.8341821 7.53125 9.84375 C 7.3802632 9.8897747 7.2213864 9.9121011 7.0625 9.9375 C 6.881174 9.966486 6.6894917 10 6.5 10 C 4.5670034 10 3 8.4329966 3 6.5 C 3 6.258375 3.015877 6.0090918 3.0625 5.78125 C 3.3888619 4.186359 4.808628 3 6.5 3 z M 3 12 C 2.44772 12 2 12.44772 2 13 C 2 13.55228 2.44772 14 3 14 C 3.55228 14 4 13.55228 4 13 C 4 12.44772 3.55228 12 3 12 z M 6 12 C 5.44772 12 5 12.44772 5 13 C 5 13.55228 5.44772 14 6 14 C 6.55228 14 7 13.55228 7 13 C 7 12.44772 6.55228 12 6 12 z M 9 12 C 8.44772 12 8 12.44772 8 13 C 8 13.55228 8.44772 14 9 14 C 9.55228 14 10 13.55228 10 13 C 10 12.44772 9.55228 12 9 12 z "
     class="ColorScheme-Text"
     />
</svg>

<svg xmlns="http://www.w3.org/2000/svg" viewBox="0 0 16 16">
<defs id="defs3051">
<style id="current-color-scheme" type="text/css">
.ColorScheme-Text{color:#fcfcfc}
</style>
</defs>
<path d="M6.5 2a4.5 4.5 0 0 0 0 9 4.5 4.5 0 0 0 2.813-1l4 4 .687-.687-4-4A4.5 4.5 0 0 0 11 6.5 4.5 4.5 0 0 0 6.5 2m0 1A3.5 3.5 0 0 1 10 6.5c0 .197-.03.375-.062.563-.026.158-.048.317-.094.468l-.031.094q-.014.047-.032.094a3 3 0 0 1-.187.406l-.031.063c-.081.147-.181.272-.282.406-.198.263-.424.49-.687.687-.134.1-.26.2-.406.281-.02.012-.043.02-.063.032l-.062.031a3.4 3.4 0 0 1-.438.188q-.046.016-.094.03c-.15.047-.31.07-.468.095-.182.028-.374.062-.563.062A3.5 3.5 0 0 1 3 6.5c0-.242.016-.49.063-.719A3.5 3.5 0 0 1 6.5 3M3 12a1 1 0 1 0 0 2 1 1 0 0 0 0-2m3 0a1 1 0 1 0 0 2 1 1 0 0 0 0-2m3 0a1 1 0 1 0 0 2 1 1 0 0 0 0-2" class="ColorScheme-Text" style="fill:currentColor;fill-opacity:1;stroke:none"/>
</svg>
